src/lib/packages/icons/src/assets/line/cloud-shield.svg

<svg width="24" height="24" viewBox="0 0 24 24" fill="none" xmlns="http://www.w3.org/2000/svg">
<path d="M17 18.75H12C11.586 18.75 11.25 18.414 11.25 18C11.25 17.586 11.586 17.25 12 17.25H17C19.344 17.25 21.25 15.344 21.25 13C21.25 10.656 19.344 8.75 17 8.75C16.717 8.75 16.4449 8.77503 16.1689 8.82703C15.8669 8.88503 15.5551 8.74801 15.3931 8.48401C15.1011 8.01301 14.7301 7.57298 14.2891 7.17798C13.2511 6.25798 11.904 5.75 10.5 5.75C8.532 5.75 6.72411 6.74199 5.66211 8.40399C5.44011 8.75199 4.97695 8.856 4.62695 8.633C4.27695 8.41 4.17495 7.94598 4.39795 7.59698C5.73595 5.50198 8.017 4.25098 10.5 4.25098C12.271 4.25098 13.9721 4.893 15.2871 6.06C15.7071 6.436 16.0761 6.84498 16.3911 7.28198C16.5921 7.26098 16.794 7.25098 17 7.25098C20.171 7.25098 22.75 9.82998 22.75 13.001C22.75 16.172 20.171 18.75 17 18.75ZM5.73999 19.71C7.67799 19.054 9.75 17.355 9.75 14.555V12.275C9.75 11.932 9.51806 11.632 9.18506 11.548C7.42506 11.101 6.60312 10.718 5.84912 10.332C5.63612 10.224 5.38395 10.222 5.16895 10.33C4.40695 10.714 3.57597 11.101 1.79297 11.612C1.47197 11.704 1.25 11.998 1.25 12.333V14.555C1.25 17.355 3.32101 19.054 5.26001 19.71C5.33801 19.736 5.419 19.75 5.5 19.75C5.581 19.75 5.66199 19.737 5.73999 19.71ZM5.50488 11.838C6.25988 12.205 7.054 12.522 8.25 12.853V14.556C8.25 16.852 6.292 17.879 5.5 18.2C4.708 17.879 2.75 16.852 2.75 14.556V12.894C3.959 12.526 4.73788 12.208 5.50488 11.838Z" fill="currentColor"/>
</svg>

<svg xmlns="http://www.w3.org/2000/svg" width="24" height="24" fill="none"><path fill="currentColor" d="M17 18.75h-5a.75.75 0 0 1 0-1.5h5A4.254 4.254 0 0 0 21.25 13 4.254 4.254 0 0 0 17 8.75a4.44 4.44 0 0 0-.831.077.749.749 0 0 1-.776-.343 6.015 6.015 0 0 0-1.104-1.306A5.706 5.706 0 0 0 10.5 5.75a5.717 5.717 0 0 0-4.838 2.654.75.75 0 1 1-1.264-.807A7.21 7.21 0 0 1 10.5 4.251c1.771 0 3.472.642 4.787 1.809.42.376.79.785 1.104 1.222a5.756 5.756 0 0 1 6.359 5.719A5.755 5.755 0 0 1 17 18.75Zm-11.26.96c1.938-.656 4.01-2.355 4.01-5.155v-2.28a.749.749 0 0 0-.565-.727c-1.76-.447-2.582-.83-3.336-1.216a.754.754 0 0 0-.68-.002c-.762.384-1.593.771-3.376 1.282a.75.75 0 0 0-.543.721v2.222c0 2.8 2.071 4.499 4.01 5.155a.76.76 0 0 0 .48 0Zm-.235-7.872c.755.367 1.549.684 2.745 1.015v1.703c0 2.296-1.958 3.323-2.75 3.644-.792-.321-2.75-1.348-2.75-3.644v-1.662c1.209-.368 1.988-.686 2.755-1.056Z"/></svg>
